X: 9
T: The Keel Row
R: strathspey
M: 4/4
L: 1/8
K: Gmaj
|: c/ |(3BcB G>B c2 A>c | (3BcB G>B A>F D2 |\
(3BcB (3GAB c>DA>D | B>GA>D G2- G3/ :|
|: c/ |B<d d2 (3efe d>c | B2 G>B A>F D2 |\
B<d d2 (3efe d2 | B>GA>D G2- G3/ :|


Tune 3637	Setting 16643

